X:1
T:Jingle Bells Bass
T:Jingle Bells Bass
L:1/8
M:2/4
K:G
V:1 bass nm="Piano" snm="Pno."
V:1
 G, F, (E,D,) | G, F, (E,D,) | G, F, E,3/2 D,/ | G, F, (E,D,) | C, D, E,3/2 F,/ | %5
 G, F, E, D,/ D,/ | ^C, A,, B,, C, | D, D, E, F, | G, F, (E,D,) | G, F, (E,D,) | G, F, E,3/2 D,/ | %11
 G, F, (E,D,) | C, D, E, F, | G, F, E, D,/ D,/ | D, D, E, F, | G,3 G, | G, G, F, G, | G,3 G,/ G,/ | %18
 G, G, F, B,, | C,3 C, | C, C, E, E, | D,3 D, | D D, E, F, | G, F, F, G, | D, D, E, F, | G,3 G, | %26
 G, G, F, B,, | C,3 C, | C, D, E, F, | G, F, E, D, | D, D, E, F, | G,2 D,2!D.C.! |] %32

